images/50406992.svg

<?xml version="1.0" encoding="UTF-8"?>
<svg xmlns="http://www.w3.org/2000/svg" xmlns:xlink="http://www.w3.org/1999/xlink" width="300pt" height="300pt" viewBox="0 0 300 300" version="1.1">
<defs>
<g>
<symbol overflow="visible" id="glyph0-0">
<path style="stroke:none;" d="M 0.453125 1.59375 L 0.453125 -6.34375 L 4.953125 -6.34375 L 4.953125 1.59375 Z M 0.953125 1.09375 L 4.453125 1.09375 L 4.453125 -5.84375 L 0.953125 -5.84375 Z M 0.953125 1.09375 "/>
</symbol>
<symbol overflow="visible" id="glyph0-1">
<path style="stroke:none;" d="M 3.546875 -5.953125 C 2.898438 -5.953125 2.382812 -5.710938 2 -5.234375 C 1.625 -4.753906 1.4375 -4.101562 1.4375 -3.28125 C 1.4375 -2.445312 1.625 -1.789062 2 -1.3125 C 2.382812 -0.832031 2.898438 -0.59375 3.546875 -0.59375 C 4.191406 -0.59375 4.703125 -0.832031 5.078125 -1.3125 C 5.453125 -1.789062 5.640625 -2.445312 5.640625 -3.28125 C 5.640625 -4.101562 5.453125 -4.753906 5.078125 -5.234375 C 4.703125 -5.710938 4.191406 -5.953125 3.546875 -5.953125 Z M 3.546875 -6.6875 C 4.460938 -6.6875 5.195312 -6.375 5.75 -5.75 C 6.300781 -5.132812 6.578125 -4.3125 6.578125 -3.28125 C 6.578125 -2.238281 6.300781 -1.410156 5.75 -0.796875 C 5.195312 -0.179688 4.460938 0.125 3.546875 0.125 C 2.617188 0.125 1.878906 -0.179688 1.328125 -0.796875 C 0.773438 -1.410156 0.5 -2.238281 0.5 -3.28125 C 0.5 -4.3125 0.773438 -5.132812 1.328125 -5.75 C 1.878906 -6.375 2.617188 -6.6875 3.546875 -6.6875 Z M 3.546875 -6.6875 "/>
</symbol>
<symbol overflow="visible" id="glyph0-2">
<path style="stroke:none;" d="M 0.890625 -6.5625 L 2.078125 -6.5625 L 4.984375 -1.078125 L 4.984375 -6.5625 L 5.84375 -6.5625 L 5.84375 0 L 4.65625 0 L 1.75 -5.484375 L 1.75 0 L 0.890625 0 Z M 0.890625 -6.5625 "/>
</symbol>
<symbol overflow="visible" id="glyph0-3">
<path style="stroke:none;" d="M 0.890625 -6.5625 L 1.765625 -6.5625 L 1.765625 -3.875 L 5 -3.875 L 5 -6.5625 L 5.890625 -6.5625 L 5.890625 0 L 5 0 L 5 -3.125 L 1.765625 -3.125 L 1.765625 0 L 0.890625 0 Z M 0.890625 -6.5625 "/>
</symbol>
</g>
</defs>
<g id="surface11697">
<rect x="0" y="0" width="300" height="300" style="fill:rgb(100%,100%,100%);fill-opacity:1;stroke:none;"/>
<path style="fill:none;stroke-width:1.2;stroke-linecap:butt;stroke-linejoin:miter;stroke:rgb(100%,0%,0%);stroke-opacity:1;stroke-miterlimit:10;" d="M 145.164062 167.453125 L 143.609375 157.359375 "/>
<path style="fill:none;stroke-width:1.2;stroke-linecap:butt;stroke-linejoin:miter;stroke:rgb(0%,0%,0%);stroke-opacity:1;stroke-miterlimit:10;" d="M 143.609375 157.359375 L 142.050781 147.265625 "/>
<path style="fill:none;stroke-width:1.2;stroke-linecap:butt;stroke-linejoin:miter;stroke:rgb(100%,0%,0%);stroke-opacity:1;stroke-miterlimit:10;" d="M 140.414062 168.183594 L 138.859375 158.089844 "/>
<path style="fill:none;stroke-width:1.2;stroke-linecap:butt;stroke-linejoin:miter;stroke:rgb(0%,0%,0%);stroke-opacity:1;stroke-miterlimit:10;" d="M 138.859375 158.089844 L 137.300781 148 "/>
<path style=" stroke:none;fill-rule:nonzero;fill:rgb(100%,100%,100%);fill-opacity:1;" d="M 138.789062 162.320312 L 146.789062 162.320312 L 146.789062 173.320312 L 138.789062 173.320312 Z M 138.789062 162.320312 "/>
<g style="fill:rgb(100%,0%,0%);fill-opacity:1;">
  <use xlink:href="#glyph0-1" x="138.789062" y="170.983398"/>
</g>
<path style="fill:none;stroke-width:1.2;stroke-linecap:butt;stroke-linejoin:miter;stroke:rgb(0%,0%,0%);stroke-opacity:1;stroke-miterlimit:10;" d="M 139.675781 147.632812 L 130.160156 143.933594 "/>
<path style="fill:none;stroke-width:1.2;stroke-linecap:butt;stroke-linejoin:miter;stroke:rgb(0%,0%,100%);stroke-opacity:1;stroke-miterlimit:10;" d="M 130.160156 143.933594 L 120.640625 140.234375 "/>
<path style=" stroke:none;fill-rule:nonzero;fill:rgb(0%,0%,0%);fill-opacity:1;" d="M 155.601562 134.84375 L 137.421875 144.820312 L 141.933594 150.441406 Z M 155.601562 134.84375 "/>
<path style="fill:none;stroke-width:1.2;stroke-linecap:butt;stroke-linejoin:miter;stroke:rgb(0%,0%,100%);stroke-opacity:1;stroke-miterlimit:10;" d="M 120.640625 140.234375 L 112.675781 146.628906 "/>
<path style="fill:none;stroke-width:1.2;stroke-linecap:butt;stroke-linejoin:miter;stroke:rgb(0%,0%,0%);stroke-opacity:1;stroke-miterlimit:10;" d="M 112.675781 146.628906 L 104.714844 153.023438 "/>
<path style=" stroke:none;fill-rule:nonzero;fill:rgb(100%,100%,100%);fill-opacity:1;" d="M 113.640625 134.734375 L 127.640625 134.734375 L 127.640625 145.734375 L 113.640625 145.734375 Z M 113.640625 134.734375 "/>
<g style="fill:rgb(0%,0%,100%);fill-opacity:1;">
  <use xlink:href="#glyph0-2" x="113.640625" y="143.397461"/>
  <use xlink:href="#glyph0-3" x="120.618164" y="143.397461"/>
</g>
<path style="fill:none;stroke-width:1.2;stroke-linecap:butt;stroke-linejoin:miter;stroke:rgb(0%,0%,0%);stroke-opacity:1;stroke-miterlimit:10;" d="M 104.714844 153.023438 L 105.207031 163.222656 "/>
<path style="fill:none;stroke-width:1.2;stroke-linecap:butt;stroke-linejoin:miter;stroke:rgb(0%,0%,100%);stroke-opacity:1;stroke-miterlimit:10;" d="M 105.207031 163.222656 L 105.699219 173.421875 "/>
<path style="fill:none;stroke-width:1.2;stroke-linecap:butt;stroke-linejoin:miter;stroke:rgb(0%,0%,0%);stroke-opacity:1;stroke-miterlimit:10;" d="M 85.007812 147.652344 L 104.714844 153.023438 "/>
<path style="fill:none;stroke-width:1.2;stroke-linecap:butt;stroke-linejoin:miter;stroke:rgb(0%,0%,0%);stroke-opacity:1;stroke-miterlimit:10;" d="M 85.714844 152.828125 L 101.480469 157.121094 "/>
<path style="fill:none;stroke-width:1.2;stroke-linecap:butt;stroke-linejoin:miter;stroke:rgb(0%,0%,100%);stroke-opacity:1;stroke-miterlimit:10;" d="M 105.699219 173.421875 L 86.597656 180.664062 "/>
<path style=" stroke:none;fill-rule:nonzero;fill:rgb(100%,100%,100%);fill-opacity:1;" d="M 98.699219 167.921875 L 112.699219 167.921875 L 112.699219 178.921875 L 98.699219 178.921875 Z M 98.699219 167.921875 "/>
<g style="fill:rgb(0%,0%,100%);fill-opacity:1;">
  <use xlink:href="#glyph0-2" x="98.699219" y="176.584961"/>
  <use xlink:href="#glyph0-3" x="105.676758" y="176.584961"/>
</g>
<path style="fill:none;stroke-width:1.2;stroke-linecap:butt;stroke-linejoin:miter;stroke:rgb(0%,0%,100%);stroke-opacity:1;stroke-miterlimit:10;" d="M 86.597656 180.664062 L 80.207031 172.699219 "/>
<path style="fill:none;stroke-width:1.2;stroke-linecap:butt;stroke-linejoin:miter;stroke:rgb(0%,0%,0%);stroke-opacity:1;stroke-miterlimit:10;" d="M 80.207031 172.699219 L 73.8125 164.738281 "/>
<path style="fill:none;stroke-width:1.2;stroke-linecap:butt;stroke-linejoin:miter;stroke:rgb(0%,0%,100%);stroke-opacity:1;stroke-miterlimit:10;" d="M 89.066406 176.0625 L 83.953125 169.691406 "/>
<path style="fill:none;stroke-width:1.2;stroke-linecap:butt;stroke-linejoin:miter;stroke:rgb(0%,0%,0%);stroke-opacity:1;stroke-miterlimit:10;" d="M 83.953125 169.691406 L 78.835938 163.320312 "/>
<path style=" stroke:none;fill-rule:nonzero;fill:rgb(100%,100%,100%);fill-opacity:1;" d="M 83.597656 175.164062 L 90.597656 175.164062 L 90.597656 186.164062 L 83.597656 186.164062 Z M 83.597656 175.164062 "/>
<g style="fill:rgb(0%,0%,100%);fill-opacity:1;">
  <use xlink:href="#glyph0-2" x="83.597656" y="183.827148"/>
</g>
<path style="fill:none;stroke-width:1.2;stroke-linecap:butt;stroke-linejoin:miter;stroke:rgb(0%,0%,0%);stroke-opacity:1;stroke-miterlimit:10;" d="M 73.8125 164.738281 L 85.007812 147.652344 "/>
<path style="fill:none;stroke-width:1.2;stroke-linecap:butt;stroke-linejoin:miter;stroke:rgb(0%,0%,0%);stroke-opacity:1;stroke-miterlimit:10;" d="M 73.8125 164.738281 L 53.410156 165.722656 "/>
<path style="fill:none;stroke-width:1.2;stroke-linecap:butt;stroke-linejoin:miter;stroke:rgb(0%,0%,0%);stroke-opacity:1;stroke-miterlimit:10;" d="M 53.410156 165.722656 L 36.234375 176.773438 "/>
<path style="fill:none;stroke-width:1.2;stroke-linecap:butt;stroke-linejoin:miter;stroke:rgb(0%,0%,0%);stroke-opacity:1;stroke-miterlimit:10;" d="M 35.25 156.375 L 53.410156 165.722656 "/>
<path style="fill:none;stroke-width:1.2;stroke-linecap:butt;stroke-linejoin:miter;stroke:rgb(0%,0%,0%);stroke-opacity:1;stroke-miterlimit:10;" d="M 36.234375 176.773438 L 35.25 156.375 "/>
<path style="fill:none;stroke-width:1.2;stroke-linecap:butt;stroke-linejoin:miter;stroke:rgb(0%,0%,0%);stroke-opacity:1;stroke-miterlimit:10;" d="M 155.601562 134.84375 L 152.492188 114.65625 "/>
<path style="fill:none;stroke-width:1.2;stroke-linecap:butt;stroke-linejoin:miter;stroke:rgb(0%,0%,0%);stroke-opacity:1;stroke-miterlimit:10;" d="M 155.601562 134.84375 L 174.640625 142.242188 "/>
<path style="fill:none;stroke-width:1.2;stroke-linecap:butt;stroke-linejoin:miter;stroke:rgb(0%,0%,0%);stroke-opacity:1;stroke-miterlimit:10;" d="M 174.640625 142.242188 L 177.753906 162.429688 "/>
<path style="fill:none;stroke-width:1.2;stroke-linecap:butt;stroke-linejoin:miter;stroke:rgb(0%,0%,0%);stroke-opacity:1;stroke-miterlimit:10;" d="M 179.703125 143.527344 L 182.191406 159.679688 "/>
<path style="fill:none;stroke-width:1.2;stroke-linecap:butt;stroke-linejoin:miter;stroke:rgb(0%,0%,0%);stroke-opacity:1;stroke-miterlimit:10;" d="M 190.566406 129.453125 L 174.640625 142.242188 "/>
<path style="fill:none;stroke-width:1.2;stroke-linecap:butt;stroke-linejoin:miter;stroke:rgb(0%,0%,0%);stroke-opacity:1;stroke-miterlimit:10;" d="M 177.753906 162.429688 L 196.789062 169.828125 "/>
<path style="fill:none;stroke-width:1.2;stroke-linecap:butt;stroke-linejoin:miter;stroke:rgb(0%,0%,0%);stroke-opacity:1;stroke-miterlimit:10;" d="M 196.789062 169.828125 L 212.714844 157.039062 "/>
<path style="fill:none;stroke-width:1.2;stroke-linecap:butt;stroke-linejoin:miter;stroke:rgb(0%,0%,0%);stroke-opacity:1;stroke-miterlimit:10;" d="M 195.375 164.800781 L 208.113281 154.570312 "/>
<path style="fill:none;stroke-width:1.2;stroke-linecap:butt;stroke-linejoin:miter;stroke:rgb(0%,0%,0%);stroke-opacity:1;stroke-miterlimit:10;" d="M 212.714844 157.039062 L 222.234375 160.738281 "/>
<path style="fill:none;stroke-width:1.2;stroke-linecap:butt;stroke-linejoin:miter;stroke:rgb(0%,0%,100%);stroke-opacity:1;stroke-miterlimit:10;" d="M 222.234375 160.738281 L 231.753906 164.4375 "/>
<path style="fill:none;stroke-width:1.2;stroke-linecap:butt;stroke-linejoin:miter;stroke:rgb(0%,0%,0%);stroke-opacity:1;stroke-miterlimit:10;" d="M 212.714844 157.039062 L 209.605469 136.851562 "/>
<path style="fill:none;stroke-width:1.2;stroke-linecap:butt;stroke-linejoin:miter;stroke:rgb(0%,0%,100%);stroke-opacity:1;stroke-miterlimit:10;" d="M 231.753906 164.4375 L 240.34375 158.910156 "/>
<path style="fill:none;stroke-width:1.2;stroke-linecap:butt;stroke-linejoin:miter;stroke:rgb(0%,0%,0%);stroke-opacity:1;stroke-miterlimit:10;" d="M 240.34375 158.910156 L 248.929688 153.386719 "/>
<path style="fill:none;stroke-width:1.2;stroke-linecap:butt;stroke-linejoin:miter;stroke:rgb(0%,0%,0%);stroke-opacity:1;stroke-miterlimit:10;" d="M 236.960938 184.1875 L 234.355469 174.3125 "/>
<path style="fill:none;stroke-width:1.2;stroke-linecap:butt;stroke-linejoin:miter;stroke:rgb(0%,0%,100%);stroke-opacity:1;stroke-miterlimit:10;" d="M 234.355469 174.3125 L 231.753906 164.4375 "/>
<path style=" stroke:none;fill-rule:nonzero;fill:rgb(100%,100%,100%);fill-opacity:1;" d="M 228.753906 158.9375 L 235.753906 158.9375 L 235.753906 169.9375 L 228.753906 169.9375 Z M 228.753906 158.9375 "/>
<g style="fill:rgb(0%,0%,100%);fill-opacity:1;">
  <use xlink:href="#glyph0-2" x="228.753906" y="167.600586"/>
</g>
<path style="fill:none;stroke-width:1.2;stroke-linecap:butt;stroke-linejoin:miter;stroke:rgb(0%,0%,0%);stroke-opacity:1;stroke-miterlimit:10;" d="M 248.929688 153.386719 L 264.75 166.304688 "/>
<path style="fill:none;stroke-width:1.2;stroke-linecap:butt;stroke-linejoin:miter;stroke:rgb(0%,0%,0%);stroke-opacity:1;stroke-miterlimit:10;" d="M 264.75 166.304688 L 257.351562 185.34375 "/>
<path style="fill:none;stroke-width:1.2;stroke-linecap:butt;stroke-linejoin:miter;stroke:rgb(0%,0%,0%);stroke-opacity:1;stroke-miterlimit:10;" d="M 257.351562 185.34375 L 236.960938 184.1875 "/>
<path style="fill:none;stroke-width:1.2;stroke-linecap:butt;stroke-linejoin:miter;stroke:rgb(0%,0%,0%);stroke-opacity:1;stroke-miterlimit:10;" d="M 209.605469 136.851562 L 190.566406 129.453125 "/>
<path style="fill:none;stroke-width:1.2;stroke-linecap:butt;stroke-linejoin:miter;stroke:rgb(0%,0%,0%);stroke-opacity:1;stroke-miterlimit:10;" d="M 205.960938 140.59375 L 190.730469 134.675781 "/>
</g>
</svg>

<svg xmlns="http://www.w3.org/2000/svg" xmlns:xlink="http://www.w3.org/1999/xlink" width="300pt" height="300pt" viewBox="0 0 300 300"><defs><symbol overflow="visible"><path d="M.453 1.594v-7.938h4.5v7.938zm.5-.5h3.5v-6.938h-3.5zm0 0"/></symbol><symbol overflow="visible" id="a"><path d="M3.547-5.953c-.65 0-1.164.242-1.547.72-.375.48-.563 1.13-.563 1.952 0 .835.188 1.49.563 1.967.383.48.898.72 1.547.72.644 0 1.156-.24 1.53-.72.376-.476.564-1.132.564-1.968 0-.822-.187-1.474-.562-1.954-.375-.477-.887-.72-1.53-.72zm0-.734c.914 0 1.648.312 2.203.937.55.617.828 1.438.828 2.47 0 1.042-.277 1.87-.828 2.483-.555.617-1.29.922-2.203.922-.93 0-1.668-.305-2.22-.922C.774-1.41.5-2.237.5-3.28c0-1.033.273-1.853.828-2.47.55-.625 1.29-.938 2.22-.938zm0 0"/></symbol><symbol overflow="visible" id="b"><path d="M.89-6.563H2.08l2.906 5.485v-5.484h.86V0H4.656L1.75-5.484V0H.89zm0 0"/></symbol><symbol overflow="visible" id="c"><path d="M.89-6.563h.876v2.688H5v-2.688h.89V0H5v-3.125H1.766V0H.89zm0 0"/></symbol></defs><g><path fill="#fff" d="M0 0h300v300H0z"/><path d="M145.164 167.453l-1.555-10.094" stroke-width="1.2" stroke="#f00" stroke-miterlimit="10" fill="none"/><path d="M143.61 157.36l-1.56-10.094" stroke-width="1.2" stroke="#000" stroke-miterlimit="10" fill="none"/><path d="M140.414 168.184l-1.555-10.094" stroke-width="1.2" stroke="#f00" stroke-miterlimit="10" fill="none"/><path d="M138.86 158.09L137.3 148" stroke-width="1.2" stroke="#000" stroke-miterlimit="10" fill="none"/><path d="M138.79 162.32h8v11h-8zm0 0" fill="#fff"/><use xlink:href="#a" x="138.789" y="170.983" fill="#f00"/><path d="M139.676 147.633l-9.516-3.7" stroke-width="1.2" stroke="#000" stroke-miterlimit="10" fill="none"/><path d="M130.16 143.934l-9.52-3.7" stroke-width="1.2" stroke="#00f" stroke-miterlimit="10" fill="none"/><path d="M155.602 134.844l-18.18 9.976 4.512 5.62zm0 0"/><path d="M120.64 140.234l-7.964 6.395" stroke-width="1.2" stroke="#00f" stroke-miterlimit="10" fill="none"/><path d="M112.676 146.63l-7.96 6.393" stroke-width="1.2" stroke="#000" stroke-miterlimit="10" fill="none"/><path d="M113.64 134.734h14v11h-14zm0 0" fill="#fff"/><g fill="#00f"><use xlink:href="#b" x="113.641" y="143.397"/><use xlink:href="#c" x="120.618" y="143.397"/></g><path d="M104.715 153.023l.492 10.2" stroke-width="1.2" stroke="#000" stroke-miterlimit="10" fill="none"/><path d="M105.207 163.223l.492 10.2" stroke-width="1.2" stroke="#00f" stroke-miterlimit="10" fill="none"/><path d="M85.008 147.652l19.707 5.37M85.715 152.828l15.765 4.293" stroke-width="1.2" stroke="#000" stroke-miterlimit="10" fill="none"/><path d="M105.7 173.422l-19.102 7.242" stroke-width="1.2" stroke="#00f" stroke-miterlimit="10" fill="none"/><path d="M98.7 167.922h14v11h-14zm0 0" fill="#fff"/><g fill="#00f"><use xlink:href="#b" x="98.699" y="176.585"/><use xlink:href="#c" x="105.677" y="176.585"/></g><path d="M86.598 180.664l-6.39-7.965" stroke-width="1.2" stroke="#00f" stroke-miterlimit="10" fill="none"/><path d="M80.207 172.7l-6.394-7.962" stroke-width="1.2" stroke="#000" stroke-miterlimit="10" fill="none"/><path d="M89.066 176.063l-5.113-6.372" stroke-width="1.2" stroke="#00f" stroke-miterlimit="10" fill="none"/><path d="M83.953 169.69l-5.117-6.37" stroke-width="1.2" stroke="#000" stroke-miterlimit="10" fill="none"/><path d="M83.598 175.164h7v11h-7zm0 0" fill="#fff"/><use xlink:href="#b" x="83.598" y="183.827" fill="#00f"/><path d="M73.813 164.738l11.195-17.086M73.813 164.738l-20.403.985M53.41 165.723l-17.176 11.05M35.25 156.375l18.16 9.348M36.234 176.773l-.984-20.398M155.602 134.844l-3.11-20.188M155.602 134.844l19.04 7.398M174.64 142.242l3.114 20.188M179.703 143.527l2.488 16.153M190.566 129.453l-15.925 12.79M177.754 162.43l19.035 7.398M196.79 169.828l15.925-12.79M195.375 164.8l12.738-10.23M212.715 157.04l9.52 3.698" stroke-width="1.2" stroke="#000" stroke-miterlimit="10" fill="none"/><path d="M222.234 160.738l9.52 3.7" stroke-width="1.2" stroke="#00f" stroke-miterlimit="10" fill="none"/><path d="M212.715 157.04l-3.11-20.188" stroke-width="1.2" stroke="#000" stroke-miterlimit="10" fill="none"/><path d="M231.754 164.438l8.59-5.528" stroke-width="1.2" stroke="#00f" stroke-miterlimit="10" fill="none"/><path d="M240.344 158.91l8.586-5.523M236.96 184.188l-2.605-9.875" stroke-width="1.2" stroke="#000" stroke-miterlimit="10" fill="none"/><path d="M234.355 174.313l-2.6-9.875" stroke-width="1.2" stroke="#00f" stroke-miterlimit="10" fill="none"/><path d="M228.754 158.938h7v11h-7zm0 0" fill="#fff"/><use xlink:href="#b" x="228.754" y="167.601" fill="#00f"/><path d="M248.93 153.387l15.82 12.918M264.75 166.305l-7.398 19.04M257.352 185.344l-20.39-1.156M209.605 136.852l-19.04-7.4M205.96 140.594l-15.23-5.918" stroke-width="1.2" stroke="#000" stroke-miterlimit="10" fill="none"/></g></svg>
